assets/Children crossing/Flat/children_crossing_flat.svg

<svg xmlns="http://www.w3.org/2000/svg" width="32" height="32" fill="none"><path fill="#FFB02E" d="M29.52 14.84 17.16 2.48c-.64-.64-1.68-.64-2.32 0L2.48 14.84c-.64.64-.64 1.68 0 2.32l12.36 12.36c.64.64 1.68.64 2.32 0l12.36-12.36c.64-.64.64-1.68 0-2.32Z"/><path fill="#000" d="m22.69 15.43-2.53-1.57a2.01 2.01 0 1 0-2.22-.01l-2.57 1.51-1.51-.6a2.01 2.01 0 1 0-2.34.1l-2.18 1.36a.83.83 0 0 0-.3 1.18c.16.26.45.41.73.41.16 0 .31-.04.46-.13l1.02-.63-.99 2.9a.876.876 0 0 0 .82 1.15c.36 0 .69-.23.82-.59l.71-2.08.71 2.08c.12.36.46.59.82.59.09 0 .19-.01.28-.05.45-.15.69-.64.54-1.1L13.8 16.6l1.3.52.09.03c.01 0 .02 0 .02.01.03.01.05.01.08.02h.02c.03 0 .07.01.1.01s.07 0 .1-.01h.02c.03 0 .06-.01.09-.02.01 0 .01 0 .02-.01l.09-.03c.01 0 .01 0 .02-.01.03-.01.06-.03.09-.05l1.99-1.16-1.16 4.09c-.13.46.14.94.6 1.07.08.02.16.03.24.03.38 0 .72-.25.83-.63l.7-2.47.7 2.47c.11.38.45.63.83.63.08 0 .16-.01.24-.03.46-.13.73-.61.6-1.07l-1.14-4.02 1.5.93c.14.09.3.13.46.13.29 0 .57-.14.73-.41.26-.4.13-.93-.27-1.19Z"/></svg>

<svg width="32" height="32" viewBox="0 0 32 32" fill="none" xmlns="http://www.w3.org/2000/svg">
<path d="M29.52 14.84L17.16 2.48C16.52 1.84 15.48 1.84 14.84 2.48L2.48 14.84C1.84 15.48 1.84 16.52 2.48 17.16L14.84 29.52C15.48 30.16 16.52 30.16 17.16 29.52L29.52 17.16C30.16 16.52 30.16 15.48 29.52 14.84Z" fill="#FFB02E"/>
<path d="M22.69 15.43L20.16 13.86C20.71 13.5 21.07 12.88 21.07 12.18C21.07 11.07 20.17 10.17 19.06 10.17C17.95 10.17 17.05 11.07 17.05 12.18C17.05 12.88 17.4 13.49 17.94 13.85L15.37 15.36L13.86 14.76C14.33 14.39 14.63 13.82 14.63 13.18C14.63 12.07 13.73 11.17 12.62 11.17C11.51 11.17 10.61 12.07 10.61 13.18C10.61 13.88 10.97 14.5 11.52 14.86L9.34004 16.22C8.91004 16.46 8.78004 17 9.04004 17.4C9.20004 17.66 9.49004 17.81 9.77004 17.81C9.93004 17.81 10.08 17.77 10.23 17.68L11.25 17.05L10.26 19.95C10.11 20.4 10.35 20.89 10.8 21.05C10.89 21.08 10.99 21.1 11.08 21.1C11.44 21.1 11.77 20.87 11.9 20.51L12.61 18.43L13.32 20.51C13.44 20.87 13.78 21.1 14.14 21.1C14.23 21.1 14.33 21.09 14.42 21.05C14.87 20.9 15.11 20.41 14.96 19.95L13.8 16.6L15.1 17.12C15.13 17.13 15.16 17.14 15.19 17.15C15.2 17.15 15.21 17.15 15.21 17.16C15.24 17.17 15.26 17.17 15.29 17.18C15.3 17.18 15.31 17.18 15.31 17.18C15.34 17.18 15.38 17.19 15.41 17.19C15.44 17.19 15.48 17.19 15.51 17.18C15.52 17.18 15.52 17.18 15.53 17.18C15.56 17.18 15.59 17.17 15.62 17.16C15.63 17.16 15.63 17.16 15.64 17.15C15.67 17.14 15.7 17.13 15.73 17.12C15.74 17.12 15.74 17.12 15.75 17.11C15.78 17.1 15.81 17.08 15.84 17.06L17.83 15.9L16.67 19.99C16.54 20.45 16.81 20.93 17.27 21.06C17.35 21.08 17.43 21.09 17.51 21.09C17.89 21.09 18.23 20.84 18.34 20.46L19.04 17.99L19.74 20.46C19.85 20.84 20.19 21.09 20.57 21.09C20.65 21.09 20.73 21.08 20.81 21.06C21.27 20.93 21.54 20.45 21.41 19.99L20.27 15.97L21.77 16.9C21.91 16.99 22.07 17.03 22.23 17.03C22.52 17.03 22.8 16.89 22.96 16.62C23.22 16.22 23.09 15.69 22.69 15.43Z" fill="black"/>
</svg>
